neru-light-classic/22x22/emotes/face-hat-symbolic.svg

<svg xmlns="http://www.w3.org/2000/svg" width="16" height="16"><path d="M4 1l-.75 3h9.5L12 1l-4 .5zM3 5L0 7h16l-3-2zM2 8c0 3.31 2.69 6 6 6s6-2.69 6-6zm3.5 2h5c.28 0 .5.22.5.5 0 .27-.22.5-.5.5h-5c-.28 0-.5-.23-.5-.5 0-.28.22-.5.5-.5z" fill="#1e333d"/></svg>

<svg xmlns="http://www.w3.org/2000/svg" width="16" height="16" version="1.1">
 <path style="fill:#1e333d" d="M 4,1 3.25,4 H 12.75 L 12,1 8,1.5 Z M 3,5 0,7 H 16 L 13,5 Z"/>
 <path style="fill:#1e333d" d="M 2,8 C 2,11.31 4.69,14 8,14 11.31,14 14,11.31 14,8 Z M 5.5,10 H 10.5 C 10.78,10 11,10.22 11,10.5 11,10.77 10.78,11 10.5,11 H 5.5 C 5.22,11 5,10.77 5,10.5 5,10.22 5.22,10 5.5,10 Z"/>
</svg>
